src/assets/svgicons/gruop-bag.svg

<svg width="69" height="44" viewBox="0 0 69 44" fill="none" xmlns="http://www.w3.org/2000/svg">
<g clip-path="url(#clip0_1108_278)">
<path d="M31.8047 69.3938L64.8025 51.5783C66.6174 50.5984 67.3006 48.3118 66.3207 46.4969L46.7236 10.1993C45.7437 8.38446 43.4571 7.70126 41.6423 8.68112L35.0262 12.2531C31.9863 6.82004 25.2103 4.76781 19.7987 7.68956C14.387 10.6113 12.3856 17.4025 15.2605 22.9247L8.64445 26.4967C6.82957 27.4765 6.14637 29.7631 7.12623 31.578L26.7234 67.8756C27.7032 69.6905 29.9898 70.3737 31.8047 69.3938ZM35.4377 24.8159L25.5384 30.1606C24.6309 30.6505 23.4876 30.3089 22.9977 29.4015C22.5078 28.494 22.8494 27.3507 23.7568 26.8608L33.6561 21.5161C34.5636 21.0262 35.7069 21.3678 36.1968 22.2752C36.6867 23.1827 36.3451 24.326 35.4377 24.8159ZM21.5802 10.9893C25.1605 9.05635 29.6753 10.433 31.7264 14.0347L18.5603 21.1431C16.6742 17.4523 18 12.9223 21.5802 10.9893Z" fill="#AAAAAA"/>
</g>
<defs>
<clipPath id="clip0_1108_278">
<rect width="45" height="60" fill="white" transform="translate(0 18.3789) rotate(-28.3647)"/>
</clipPath>
</defs>
</svg>

<svg viewBox="0 0 69 44" xmlns="http://www.w3.org/2000/svg"><g><path d="m31.805 69.394 32.998-17.816a3.76 3.76 0 0 0 1.518-5.081L46.724 10.199a3.76 3.76 0 0 0-5.082-1.518l-6.616 3.572C31.986 6.82 25.21 4.768 19.8 7.69c-5.412 2.921-7.413 9.712-4.538 15.235l-6.617 3.572a3.76 3.76 0 0 0-1.518 5.081l19.597 36.298a3.76 3.76 0 0 0 5.082 1.518m3.633-44.578-9.9 5.345a1.88 1.88 0 0 1-2.54-.76 1.88 1.88 0 0 1 .759-2.54l9.9-5.345a1.88 1.88 0 0 1 2.54.76 1.88 1.88 0 0 1-.76 2.54M21.58 10.989c3.58-1.933 8.095-.556 10.146 3.046L18.56 21.143c-1.886-3.69-.56-8.22 3.02-10.154"/></g></svg>
